X:8
T:Sheep's In The Meadow
C:Traditional
S:Gaither Carlton, Deep Gap, NC
H:From tape of Mr. Carlton recorded by
H:Tom Carter, 3/18/72.
Z:Joel Shimberg
M:C|
K:G
A2d2 BAGB|A2d2 G3G|A2d2 BAGB|A2A2G4::d2g2eddg|
ega2a3g|egag edBB|AGG2G4:|

